svg/printer_pos_star_outline.svg

<svg xmlns="http://www.w3.org/2000/svg" viewBox="0 0 24 24"><path d="M6 12h12v1.09c.33-.05.66-.09 1-.09s.67.04 1 .09V12a2 2 0 0 0-2-2h-1V4H7v6H6a2 2 0 0 0-2 2v7h9c0-.7.13-1.37.35-2H6zm3-6h6v4H9zm-2 9v-2h4v2zm13.8 4.77.65 2.81L19 21.09l-2.5 1.49.68-2.81L15 17.89l2.87-.25L19 15l1.11 2.64 2.89.25z"/></svg>

<svg xmlns="http://www.w3.org/2000/svg" id="mdi-printer-pos-star-outline" viewBox="0 0 24 24"><path d="M6 12H18V13.09C18.33 13.04 18.66 13 19 13C19.34 13 19.67 13.04 20 13.09V12C20 10.9 19.11 10 18 10H17V4H7V10H6C4.89 10 4 10.9 4 12V19H13C13 18.3 13.13 17.63 13.35 17H6V12M9 6H15V10H9V6M7 15V13H11V15H7M20.8 19.77L21.45 22.58L19 21.09L16.5 22.58L17.18 19.77L15 17.89L17.87 17.64L19 15L20.11 17.64L23 17.89L20.8 19.77Z" /></svg>
